packages/ui-icons/svg/Solid/share.svg

<svg viewBox="0 0 1920 1920" version="1.1" xmlns="http://www.w3.org/2000/svg">
    <path d="M1513.82658,1278.28019 C1417.05523,1278.28019 1331.19312,1322.04548 1272.41158,1389.81109 L708.211527,1064.07412 C720.019171,1030.57634 727.719809,995.025067 727.719809,957.420286 C727.719809,922.510729 720.660891,889.397987 710.393374,857.825372 L1274.2084,532.345085 C1332.98993,598.827257 1417.95364,641.69414 1513.82658,641.69414 C1691.06959,641.69414 1834.68648,498.077247 1834.68648,320.834236 C1834.68648,143.591224 1691.06959,-0.0256687924 1513.82658,-0.0256687924 C1336.58356,-0.0256687924 1192.96667,143.591224 1192.96667,320.834236 C1192.96667,356.000481 1200.02559,389.241567 1210.42145,420.814182 L646.734769,746.294469 C587.953235,679.555609 502.861188,636.560382 406.859905,636.560382 C229.616893,636.560382 86,780.177275 86,957.420286 C86,1134.6633 229.616893,1278.28019 406.859905,1278.28019 C500.294309,1278.28019 583.461196,1237.85184 642.114387,1174.06489 L1209.65139,1501.72703 C1199.7689,1532.52958 1192.96667,1564.87226 1192.96667,1599.1401 C1192.96667,1776.38311 1336.58356,1920 1513.82658,1920 C1691.06959,1920 1834.68648,1776.38311 1834.68648,1599.1401 C1834.68648,1421.89708 1691.06959,1278.28019 1513.82658,1278.28019" stroke="none" stroke-width="1" fill-rule="evenodd"/>
</svg>

<svg viewBox="0 0 1920 1920" xmlns="http://www.w3.org/2000/svg">
    <path d="M1513.827 1278.28c-96.772 0-182.634 43.765-241.415 111.531l-564.2-325.737c11.807-33.498 19.508-69.049 19.508-106.654 0-34.91-7.06-68.022-17.327-99.595l563.815-325.48c58.782 66.482 143.746 109.35 239.619 109.35 177.243 0 320.86-143.618 320.86-320.86 0-177.244-143.617-320.86-320.86-320.86-177.243 0-320.86 143.616-320.86 320.86 0 35.165 7.059 68.407 17.454 99.98l-563.686 325.48C587.953 679.554 502.86 636.56 406.86 636.56 229.617 636.56 86 780.177 86 957.42c0 177.243 143.617 320.86 320.86 320.86 93.434 0 176.601-40.428 235.254-104.215l567.537 327.662c-9.882 30.803-16.684 63.145-16.684 97.413 0 177.243 143.617 320.86 320.86 320.86 177.243 0 320.86-143.617 320.86-320.86 0-177.243-143.617-320.86-320.86-320.86" fill-rule="evenodd"/>
</svg>
